!!!SOCIAL_FUNCTION:	songs connected with legends of manabus
!!!PDT:	1932
!!!OTL: No_77_Funeral_Song_(a).krn
!!!REG: Wisconsin
!!!LANG: Non-Tone
!!!LING_GROUP: Algonquin
**kern
*staff1
=1-
*clefF4
*k[f#c#g#d#]
*M2/4
4r
8r
16r
16B\
=2
8.B\L
16B\Jk
8.cn\L
16c\Jk
=3
8.B\L
16B\Jk
8B\L
16B\L
16G#\JJ
=4||
*M3/4
8.F#\L
16F#\Jk
4F#\
8F#\
16r
16B\
=5||
*M2/4
8.B\L
16B\Jk
8.B\L
16B\Jk
=6
8.G#\L
16F#\Jk
8F#\L
16F#\L
16E\JJ
=7||
*M3/4
8.E\L
16E\Jk
8.E\L
16E\Jk
8.r
16F#\
=8||
*M2/4
8.F#\L
16F#\Jk
8.G#\L
16F#\Jk
=9
8.F#\L
16E\Jk
8E\L
16E\L
16C#\JJ
=10||
*M3/4
8.BB/L
16BB/Jk
8.BB/L
16BB/Jk
8.r
16E\
=11||
*M2/4
8.E\L
16E\Jk
8.E\L
16E\Jk
=12
8.C#/L
16BB/Jk
8.BB/L
16BB/Jk
=13
4BB/
8.r
16BB/
=14
8.BB/L
16BB/Jk
8.BB/L
16BB/Jk
=15
4GG#/
4r
==
*-
